X:9207
T:Lamb Skinnet
R:Jig
O:England
M:6/8
A:Northumbria
K:G
D|\
GBd dBG|c2e efg|GBd dBG|F2A ABA|\
GBd dBG|c2e efg|
fed ed^c|1ded =cBA :|2 d3 def |:\
gdB gdB|c2e efg|
dBG dBG|F2A ABc|\
dBG dBG|c2e efg|dBG cAF|1 G3 GBd :|2 G3 G2||


